X: 1876
T: Slow Six Eight
B: australian traditional tunes wiki
M:6/8
L:1/8
R: Air
Q: 3/8=100
K:G
V:1 
E||D2 {^A}BB2 ^A|{^A}B3 BGE|D2 {B}cc2 B|{B}c3ABc|d3G3|c3B3|A2 G F2 G|A3-AGE|
D2 {^A}BB2 ^A|{^A}B3 BGE|D2 {B}cc2 B|{B}c3ABc|d3e2c|B3A3|"First time"G3{^A} B3||"Last Time"G3G3||
||AE=F H^F3|edc edA|G>AG FF/G/F/E/| D/E/F/G/A/c/B3|AE=F ^F3|zde e/f/ f/f/f|ABc Hd3|
cB^A {^A}B3|AE=F H ^F3|edc edA|G>AG FF/G/F/E/| D/E/F/G/A/c/B3|AE=F ^F3|zde e/f/ f/f/f|"D.C. to Last Time"ABc Hd3||
% abcbook-tune_id 6342d53ae6a83005f01cb3a6


% abcbook-boost 0
% abcbook-tablature 
% abcbook-transpose 
% abcbook-lastupdated 1665324389845
% abcbook-soundfonts 
% abcbook-repeats 1
% NFF Book 2013

